assets/icons/qvision/filter_3.svg

<svg xmlns="http://www.w3.org/2000/svg" height="24" viewBox="0 0 24 24" width="24"><path d="M0 0h24v24H0z" fill="none"/><path d="M21 1H7c-1.1 0-2 .9-2 2v14c0 1.1.9 2 2 2h14c1.1 0 2-.9 2-2V3c0-1.1-.9-2-2-2zm0 16H7V3h14v14zM3 5H1v16c0 1.1.9 2 2 2h16v-2H3V5zm14 8v-1.5c0-.83-.67-1.5-1.5-1.5.83 0 1.5-.67 1.5-1.5V7c0-1.11-.9-2-2-2h-4v2h4v2h-2v2h2v2h-4v2h4c1.1 0 2-.89 2-2z"/></svg>

<svg width="24" height="24" viewBox="0 0 24 24" fill="none" xmlns="http://www.w3.org/2000/svg">
<g clip-path="url(#clip0_147_3410)">
<path d="M21 1H7C5.9 1 5 1.9 5 3V17C5 18.1 5.9 19 7 19H21C22.1 19 23 18.1 23 17V3C23 1.9 22.1 1 21 1ZM21 17H7V3H21V17ZM3 5H1V21C1 22.1 1.9 23 3 23H19V21H3V5ZM17 13V11.5C17 10.67 16.33 10 15.5 10C16.33 10 17 9.33 17 8.5V7C17 5.89 16.1 5 15 5H11V7H15V9H13V11H15V13H11V15H15C16.1 15 17 14.11 17 13Z" fill="#323232"/>
</g>
<defs>
<clipPath id="clip0_147_3410">
<rect width="24" height="24" fill="white"/>
</clipPath>
</defs>
</svg>
